public/images/sponsors/Figma.svg

<svg width="216" height="80" viewBox="0 0 216 80" fill="none" xmlns="http://www.w3.org/2000/svg">
<g clip-path="url(#clip0_590_24)">
<path d="M0 0.503813V61.5267L7.78233 61.551V32.4911H26.546V24.81H7.78233V8.18119H32.2194V0.5L0 0.503813Z" fill="white"/>
<path d="M46.227 12.891C49.0302 12.891 51.3024 10.5983 51.3024 7.77021C51.3024 4.94207 49.0302 2.64941 46.227 2.64941C43.4241 2.64941 41.1516 4.94207 41.1516 7.77021C41.1516 10.5983 43.4241 12.891 46.227 12.891Z" fill="white"/>
<path d="M42.2682 20.5723V61.5388H50.0505V20.5723H42.2682Z" fill="white"/>
<path fill-rule="evenodd" clip-rule="evenodd" d="M78.9151 19.3779C68.5806 19.3779 61.3687 28.1963 61.3687 38.6662C61.3687 49.1363 68.5806 57.9546 78.9151 57.9546C83.6464 57.9546 87.5455 56.1064 90.3832 53.0981V58.5521C90.3832 65.3394 85.099 71.0126 78.2023 71.0126C75.7234 71.0126 73.2604 70.0431 71.2981 68.6786L67.3987 75.4926C70.513 77.5182 74.2216 78.6938 78.2023 78.6938C89.2279 78.6938 98.1655 69.676 98.1655 58.5521V20.5728H90.3832V24.2346C87.5455 21.226 83.6464 19.3779 78.9151 19.3779ZM69.151 38.6662C69.151 32.1673 74.0782 27.0591 79.7611 27.0591C85.4443 27.0591 90.3712 32.1673 90.3712 38.6662C90.3712 45.1651 85.4443 50.2734 79.7611 50.2734C74.0782 50.2734 69.151 45.1651 69.151 38.6662Z" fill="white"/>
<path d="M126.207 27.0591C121.606 27.0591 117.875 30.9935 117.875 35.6363V61.5393H110.093V20.5728H117.875V24.3255C120.155 21.3515 123.515 19.3779 127.899 19.3779C133.352 19.3779 137.537 22.1106 139.961 26.2928C142.657 22.2532 147.054 19.3779 152.346 19.3779C161.203 19.3779 166.716 26.588 166.768 35.5083C166.768 35.5352 166.768 35.5622 166.768 35.5894V35.5909V35.5921V35.5937C166.768 35.6079 166.768 35.6221 166.768 35.6363V61.5393H158.986V35.6363C158.986 30.9935 155.256 27.0591 150.654 27.0591C146.052 27.0591 142.322 30.9935 142.322 35.6363V61.5393H134.539V35.6363C134.539 30.9935 130.809 27.0591 126.207 27.0591Z" fill="white"/>
<path fill-rule="evenodd" clip-rule="evenodd" d="M208.218 25.2167C204.755 21.6098 200.014 19.3779 194.514 19.3779C182.936 19.3779 174.72 29.268 174.72 41.0559C174.72 52.8438 182.936 62.7339 194.514 62.7339C200.014 62.7339 204.755 60.5023 208.218 56.8952V61.5393H216V20.5728H208.218V25.2167ZM182.502 41.0559C182.502 33.2355 188.437 27.0591 195.36 27.0591C202.282 27.0591 208.218 33.2355 208.218 41.0559C208.218 48.8766 202.282 55.0528 195.36 55.0528C188.437 55.0528 182.502 48.8766 182.502 41.0559Z" fill="white"/>
</g>
<defs>
<clipPath id="clip0_590_24">
<rect width="216" height="79" fill="white" transform="translate(0 0.5)"/>
</clipPath>
</defs>
</svg>

<svg xmlns="http://www.w3.org/2000/svg" fill="none" viewBox="0 0 216 80">
  <g fill="#fff" clip-path="url(#a)">
    <path d="M0 .504v61.023l7.782.024v-29.06h18.764V24.81H7.782V8.181H32.22V.5zm46.227 12.387c2.803 0 5.075-2.293 5.075-5.12 0-2.829-2.272-5.122-5.075-5.122s-5.075 2.293-5.075 5.121 2.272 5.121 5.075 5.121m-3.959 7.681V61.54h7.782V20.572z"/>
    <path fill-rule="evenodd" d="M78.915 19.378c-10.334 0-17.546 8.818-17.546 19.288s7.212 19.289 17.546 19.289c4.731 0 8.63-1.849 11.468-4.857v5.454c0 6.787-5.284 12.46-12.18 12.46-2.48 0-4.943-.969-6.905-2.333l-3.9 6.814a19.75 19.75 0 0 0 10.804 3.2c11.026 0 19.963-9.017 19.963-20.14v-37.98h-7.782v3.662c-2.837-3.009-6.737-4.857-11.468-4.857m-9.764 19.288c0-6.499 4.927-11.607 10.61-11.607s10.61 5.108 10.61 11.607c0 6.5-4.927 11.607-10.61 11.607s-10.61-5.108-10.61-11.607" clip-rule="evenodd"/>
    <path d="M126.207 27.06c-4.601 0-8.332 3.934-8.332 8.576V61.54h-7.782V20.573h7.782v3.753c2.28-2.974 5.64-4.948 10.024-4.948 5.453 0 9.638 2.733 12.062 6.915 2.696-4.04 7.093-6.915 12.385-6.915 8.857 0 14.37 7.21 14.422 16.13V61.54h-7.782V35.636c0-4.643-3.73-8.577-8.332-8.577s-8.332 3.935-8.332 8.577V61.54h-7.783V35.636c0-4.643-3.73-8.577-8.332-8.577"/>
    <path fill-rule="evenodd" d="M208.218 25.217c-3.463-3.607-8.204-5.84-13.704-5.84-11.578 0-19.794 9.891-19.794 21.679s8.216 21.678 19.794 21.678c5.5 0 10.241-2.232 13.704-5.839v4.644H216V20.573h-7.782zm-25.716 15.839c0-7.82 5.935-13.997 12.858-13.997 6.922 0 12.858 6.177 12.858 13.997s-5.936 13.997-12.858 13.997-12.858-6.176-12.858-13.997" clip-rule="evenodd"/>
  </g>
  <defs>
    <clipPath id="a">
      <path fill="#fff" d="M0 .5h216v79H0z"/>
    </clipPath>
  </defs>
</svg>
